X:61
T:Ble rwt ti'n Mynd?
M:2/4
L:1/8
Q:300
C:Trad. arr. Ceri Rhys Matthews
R:Plin
N:Dance arrangement
K:G
EB B2 | EB B2 | AB cA | BA GF | EB B2|
| EB B2 | AB cA | B4 :|| A2 A2|
| FA A2 | G2 FE | F2 GF | E2 ED|
| E2 EF | G2 A2 | B4 | c2 Ac |
B2 EF | G2 F2 | E4 ||
